!!!SOCIAL_FUNCTION:	potlatch songs
!!!PDT:	1939
!!!OTL: No_13_Song_of_the_Guests_in_Their_Canoes.krn
!!!LANG: Non-Tone
!!!LING_GROUP: Wakashan
!!!REG: Pacific Northwest
**kern	**kern
*staff2	*staff1
=1-	=1-
*clefF4	*clefF4
*k[b-]	*k[b-]
*M3/4	*M3/4
8GG/L	{2c\
8GG/J	.
8GG/L	.
8GG/J	.
8GG/L	4A\
8GG/J	.
=2||	=2||
*M2/4	*M2/4
8GG/L	8c\L
8GG/J	8c\J
8GG/L	4A\
8GG/J	.
=3	=3
8GG/L	4.c\
8GG/J	.
8GG/L	.
8GG/J	8A\
=4	=4
8GG/L	8F\}
8GG/J	8r
8GG/L	{4c\
8GG/J	.
=5	=5
8GG/L	8c\L
8GG/J	8c\J
8GG/L	8A\L
8GG/J	8F\J
=6||	=6||
*M3/4	*M3/4
8GG/L	4A\
8GG/J	.
8GG/L	4.F\
8GG/J	.
8GG/L	.
8GG/J	8c\
=7||	=7||
*M2/4	*M2/4
8GG/L	4A\
8GG/J	.
8GG/L	4F\
8GG/J	.
=8||	=8||
*M3/4	*M3/4
8GG/L	4A\
8GG/J	.
8GG/L	8F\L
8GG/J	8A\J
8GG/L	8F\L
8GG/J	8A\J
=9	=9
8GG/L	4.A\
8GG/J	.
8GG/L	.
8GG/J	8F\}
8GG/L	4r
8GG/J	.
=10	=10
8GG/L	{8c\L
8GG/J	8A\J
8GG/L	8F\L
8GG/J	8A\J
8GG/L	8F\L
8GG/J	8A\J
=11	=11
8GG/L	4A\
8GG/J	.
8GG/L	4F\
8GG/J	.
8GG/L	8r
8GG/J	8A\
=12||	=12||
*M3/8	*M3/8
8GG/L	4A\
8GG/	.
8GG/J	16F\}
.	16r
=13||	=13||
*M3/4	*M3/4
8GG/L	{4A\
8GG/J	.
8GG/L	8F\L
8GG/J	8A\J
8GG/L	8A\L
8GG/J	8A\J
=14	=14
8GG/L	4A\
8GG/J	.
8GG/L	4F\}
8GG/J	.
8GG/L	4r
8GG/J	.
=15	=15
=	=
8GG/L	{8c\L
8GG/J	8A\J
8GG/L	8A\L
8GG/J	8A\J
8GG/L	8F\L
8GG/J	8A\J
=16||	=16||
*M2/4	*M2/4
8GG/L	4A\
8GG/J	.
8GG/L	8F\}
8GG/J	8r
=17||	=17||
*M3/4	*M3/4
8GG/L	{8.A\L
8GG/J	.
.	16A\Jk
8GG/L	4A\
8GG/J	.
8GG/L	4F\
8GG/J	.
=18	=18
8GG/L	4A\
8GG/J	.
8GG/L	8F\L
8GG/J	8A\J
8GG/L	8F\L
8GG/J	8A\J
=19	=19
8GG/L	4A\}
8GG/J	.
8GG/L	2r
8GG/J	.
8GG/L	.
8GG/J	.
=20:|!	=20:|!
8GG/L	{8c\L
8GG/J	8A\J
8GG/L	8A\L
8GG/J	8A\J
8GG/L	8F\L
8GG/J	8A\J
=21||	=21||
*M2/4	*M2/4
8GG/L	4A\}
8GG/J	.
8GG/L	4r
8GG/J	.
=22	=22
8GG/L	4r
8GG/J	.
8GG/L	4r
8GG/J	.
=23||	=23||
*M3/4	*M3/4
8GG/L	{4.c\
8GG/J	.
8GG/L	.
8GG/J	16A\LL
.	16c\JJ
8GG/L	12c\L
.	12A\
8GG/J	.
.	12c\J
=24||	=24||
*M2/4	*M2/4
8GG/L	4c\
8GG/J	.
8GG/L	8A\}
8GG/J	8r
=25	=25
8GG/L	{8.c\L
8GG/J	.
.	16c\Jk
8GG/L	12c\L
.	12A\
8GG/J	.
.	12A\J
=26||	=26||
*M3/4	*M3/4
8GG/L	8A\L
8GG/J	[8F\J
8GG/L	8F\L]
8GG/J	8c\J
8GG/L	16A\LK
.	8.F\J
8GG/J	.
=27	=27
8GG/L	4A\
8GG/J	.
8GG/L	8F\L
8GG/J	8A\J
8GG/L	8A\L
8GG/J	8A\J
=28	=28
8GG/L	2A\}
8GG/J	.
8GG/L	.
8GG/J	.
8GG/L	4r
8GG/J	.
==	==
*-	*-
